src/assets/filled/GlobalRefresh.svg

<svg width="24" height="24" viewBox="0 0 24 24"  xmlns="http://www.w3.org/2000/svg">
<path d="M22.65 18.1302C22.55 17.7302 22.15 17.4802 21.75 17.5802C21.35 17.6802 21.1 18.0802 21.19 18.4802C21.23 18.6502 21.25 18.8202 21.25 19.0002C21.25 20.2402 20.24 21.2502 19 21.2502C17.76 21.2502 16.75 20.2402 16.75 19.0002C16.75 17.9002 17.54 16.9902 18.59 16.7902C18.49 17.0202 18.5 17.3002 18.66 17.5202C18.81 17.7202 19.04 17.8302 19.27 17.8302C19.42 17.8302 19.58 17.7802 19.71 17.6902L20.88 16.8402C20.89 16.8302 20.89 16.8202 20.9 16.8202C20.91 16.8102 20.92 16.8102 20.93 16.8002C20.96 16.7702 20.98 16.7402 21 16.7002C21.03 16.6602 21.07 16.6302 21.09 16.5802C21.11 16.5402 21.12 16.4902 21.14 16.4502C21.15 16.4002 21.17 16.3602 21.18 16.3102C21.19 16.2602 21.18 16.2202 21.17 16.1702C21.17 16.1202 21.17 16.0702 21.15 16.0202C21.14 15.9702 21.11 15.9302 21.09 15.8902C21.07 15.8502 21.06 15.8102 21.04 15.7802C21.03 15.7702 21.02 15.7702 21.01 15.7602C21 15.7602 21 15.7502 21 15.7402L20 14.5902C19.73 14.2802 19.25 14.2402 18.94 14.5202C18.72 14.7202 18.64 15.0102 18.72 15.2802C16.79 15.4302 15.26 17.0302 15.26 19.0002C15.26 21.0702 16.94 22.7502 19.01 22.7502C21.08 22.7502 22.76 21.0702 22.76 19.0002C22.75 18.7102 22.72 18.4102 22.65 18.1302Z" />
<path d="M2.03001 14.6299C2.03001 14.6599 2.01001 14.6999 2.01001 14.7299C2.93001 16.5699 4.43001 18.0799 6.27001 18.9899C6.30001 18.9899 6.34001 18.9699 6.37001 18.9699C6.03001 17.8099 5.77001 16.6199 5.58001 15.4299C4.38001 15.2299 3.19001 14.9699 2.03001 14.6299Z" />
<path d="M19.0701 6.42994C18.1301 4.45994 16.5401 2.86994 14.5801 1.93994C14.9401 3.12994 15.2401 4.34994 15.4401 5.56994C16.6601 5.76994 17.8801 6.05994 19.0701 6.42994Z" />
<path d="M1.92993 6.43002C3.12993 6.07002 4.34993 5.77002 5.56993 5.57002C5.76993 4.38002 6.01993 3.20002 6.35993 2.04002C6.32993 2.04002 6.28993 2.02002 6.25993 2.02002C4.37993 2.95002 2.84993 4.52002 1.92993 6.43002Z" />
<path d="M13.8199 5.36C13.5799 4.06 13.2799 2.76 12.8499 1.5C12.8299 1.43 12.8299 1.37 12.8199 1.29C12.0799 1.11 11.2999 1 10.4999 1C9.68993 1 8.91993 1.11 8.16993 1.3C8.15993 1.37 8.16993 1.43 8.14993 1.51C7.72993 2.77 7.41993 4.06 7.17993 5.36C9.38993 5.12 11.6099 5.12 13.8199 5.36Z" />
<path d="M5.36 7.18018C4.05 7.42018 2.77 7.73018 1.5 8.15018C1.43 8.17018 1.37 8.17018 1.3 8.18018C1.11 8.92018 1 9.70018 1 10.5002C1 11.3102 1.11 12.0802 1.3 12.8302C1.37 12.8402 1.43 12.8302 1.51 12.8502C2.77 13.2702 4.06 13.5802 5.37 13.8202C5.12 11.6102 5.12 9.39018 5.36 7.18018Z" />
<path d="M19.6999 8.18018C19.6299 8.18018 19.5699 8.17018 19.4899 8.15018C18.2299 7.73018 16.9299 7.42018 15.6299 7.18018C15.8799 9.39018 15.8799 11.6102 15.6299 13.8102C16.9299 13.5702 18.2299 13.2702 19.4899 12.8402C19.5599 12.8202 19.6199 12.8302 19.6999 12.8202C19.8799 12.0702 19.9999 11.3002 19.9999 10.4902C19.9999 9.70018 19.8899 8.93018 19.6999 8.18018Z" />
<path d="M7.17993 15.6399C7.41993 16.9499 7.71993 18.2399 8.14993 19.4999C8.16993 19.5699 8.15993 19.6299 8.16993 19.7099C8.91993 19.8899 9.68993 19.9999 10.4999 19.9999C11.2999 19.9999 12.0799 19.8899 12.8199 19.6999C12.8299 19.6299 12.8299 19.5699 12.8499 19.4899C13.2699 18.2299 13.5799 16.9399 13.8199 15.6299C12.7199 15.7499 11.6099 15.8399 10.4999 15.8399C9.38993 15.8399 8.27993 15.7599 7.17993 15.6399Z" />
<path d="M6.9501 6.9501C6.6501 9.3101 6.6501 11.6901 6.9501 14.0601C9.3101 14.3601 11.6901 14.3601 14.0601 14.0601C14.3601 11.7001 14.3601 9.3201 14.0601 6.9501C11.6901 6.6501 9.3101 6.6501 6.9501 6.9501Z" />
</svg>

<?xml version="1.0" encoding="UTF-8"?>
<svg width="24" height="24" viewBox="0 0 24 24" xmlns="http://www.w3.org/2000/svg">
 <path d="m22.65 18.13c-0.1-0.4-0.5-0.65-0.9-0.55s-0.65 0.5-0.56 0.9c0.04 0.17 0.06 0.34 0.06 0.52 0 1.24-1.01 2.25-2.25 2.25s-2.25-1.01-2.25-2.25c0-1.1 0.79-2.01 1.84-2.21-0.1 0.23-0.09 0.51 0.07 0.73 0.15 0.2 0.38 0.31 0.61 0.31 0.15 0 0.31-0.05 0.44-0.14l1.17-0.85c0.01-0.01 0.01-0.02 0.02-0.02 0.01-0.01 0.02-0.01 0.03-0.02 0.03-0.03 0.05-0.06 0.07-0.1 0.03-0.04 0.07-0.07 0.09-0.12 0.02-0.04 0.03-0.09 0.05-0.13 0.01-0.05 0.03-0.09 0.04-0.14s0-0.09-0.01-0.14c0-0.05 0-0.1-0.02-0.15-0.01-0.05-0.04-0.09-0.06-0.13s-0.03-0.08-0.05-0.11c-0.01-0.01-0.02-0.01-0.03-0.02-0.01 0-0.01-0.01-0.01-0.02l-1-1.15c-0.27-0.31-0.75-0.35-1.06-0.07-0.22 0.2-0.3 0.49-0.22 0.76-1.93 0.15-3.46 1.75-3.46 3.72 0 2.07 1.68 3.75 3.75 3.75s3.75-1.68 3.75-3.75c-0.01-0.29-0.04-0.59-0.11-0.87z"/>
 <path d="m2.03 14.63c0 0.03-0.02 0.07-0.02 0.1 0.92 1.84 2.42 3.35 4.26 4.26 0.03 0 0.07-0.02 0.1-0.02-0.34-1.16-0.6-2.35-0.79-3.54-1.2-0.2-2.39-0.46-3.55-0.8z"/>
 <path d="m19.07 6.4299c-0.94-1.97-2.53-3.56-4.49-4.49 0.36 1.19 0.66 2.41 0.86 3.63 1.22 0.2 2.44 0.49 3.63 0.86z"/>
 <path d="m1.9299 6.43c1.2-0.36 2.42-0.66 3.64-0.86 0.2-1.19 0.45-2.37 0.79-3.53-0.03 0-0.07-0.02-0.1-0.02-1.88 0.93-3.41 2.5-4.33 4.41z"/>
 <path d="m13.82 5.36c-0.24-1.3-0.54-2.6-0.97-3.86-0.02-0.07-0.02-0.13-0.03-0.21-0.74-0.18-1.52-0.29-2.32-0.29-0.80997 0-1.58 0.11-2.33 0.3-0.01 0.07 0 0.13-0.02 0.21-0.42 1.26-0.73 2.55-0.97 3.85 2.21-0.24 4.43-0.24 6.64 0z"/>
 <path d="m5.36 7.1802c-1.31 0.24-2.59 0.55-3.86 0.97-0.07 0.02-0.13 0.02-0.2 0.03-0.19 0.74-0.3 1.52-0.3 2.32 0 0.81 0.11 1.58 0.3 2.33 0.07 0.01 0.13 0 0.21 0.02 1.26 0.42 2.55 0.73 3.86 0.97-0.25-2.21-0.25-4.43-0.01-6.64z"/>
 <path d="m19.7 8.1802c-0.07 0-0.13-0.01-0.21-0.03-1.26-0.42-2.56-0.73-3.86-0.97 0.25 2.21 0.25 4.43 0 6.63 1.3-0.24 2.6-0.54 3.86-0.97 0.07-0.02 0.13-0.01 0.21-0.02 0.18-0.75 0.3-1.52 0.3-2.33 0-0.79002-0.11-1.56-0.3-2.31z"/>
 <path d="m7.1799 15.64c0.24 1.31 0.54 2.6 0.97 3.86 0.02 0.07 0.01 0.13 0.02 0.21 0.75 0.18 1.52 0.29 2.33 0.29 0.8 0 1.58-0.11 2.32-0.3 0.01-0.07 0.01-0.13 0.03-0.21 0.42-1.26 0.73-2.55 0.97-3.86-1.1 0.12-2.21 0.21-3.32 0.21-1.11 0-2.22-0.08-3.32-0.2z"/>
 <path d="m6.9501 6.9501c-0.3 2.36-0.3 4.74 0 7.11 2.36 0.3 4.74 0.3 7.11 0 0.3-2.36 0.3-4.74 0-7.11-2.37-0.3-4.75-0.3-7.11 0z"/>
</svg>
